svgs/duotone/hands-praying.svg

<svg xmlns="http://www.w3.org/2000/svg" viewBox="0 0 640 512"><!-- Font Awesome Pro 6.0.0-alpha2 by @fontawesome - https://fontawesome.com License - https://fontawesome.com/license (Commercial License) --><defs><style>.fa-secondary{opacity:.4}</style></defs><path d="M618.136 353.637L528.011 323.639V243.395C528.011 224.395 522.511 206.021 511.886 190.146L394.636 14.285C394.511 14.035 394.011 14.035 393.886 13.785C384.261 0.285 366.011 -4.09 351.511 4.535C336.386 13.66 331.511 33.283 340.511 48.533L418.261 178.023C427.261 193.021 432.011 210.021 432.011 227.52V304.014C432.011 312.889 424.886 320.014 416.011 320.014S400.011 312.889 400.011 304.014V224.02C400.011 206.396 385.636 192.021 368.011 192.021S336.011 206.396 336.011 224.02V352.012C336.011 403.883 370.886 450.129 420.761 464.379L600.011 511C602.636 511.625 605.386 512 608.011 512C631.511 512 640.011 490.752 640.011 480.002V384.01C640.011 370.26 631.261 358.012 618.136 353.637Z" class="fa-secondary"/><path d="M272 191.896C254.375 191.896 240 206.271 240 223.895V303.889C240 312.764 232.875 319.889 224 319.889S208 312.764 208 303.889V227.395C208 210.021 212.75 192.896 221.75 178.023L299.5 48.408C308.5 33.283 303.625 13.66 288.5 4.535C274 -4.215 255.75 0.16 246.125 13.66C246 13.91 245.5 13.91 245.375 14.16L128.125 190.023C117.5 205.896 112 224.27 112 243.27V323.514L21.875 353.512C8.75 357.887 0 370.135 0 383.885V479.877C0 490.752 8.5 511.875 32 511.875C34.75 511.875 37.375 511.625 40 510.875L219.25 464.254C269.125 450.004 304 403.758 304 351.887V223.895C304 206.271 289.625 191.896 272 191.896Z" class="fa-primary"/></svg>

<svg xmlns="http://www.w3.org/2000/svg" viewBox="0 0 640 512"><!--! Font Awesome Pro 6.0.0-alpha3 by @fontawesome - https://fontawesome.com License - https://fontawesome.com/license (Commercial License) --><defs><style>.fa-secondary{opacity:.4}</style></defs><path class="fa-primary" d="M272 191.9c-17.62 0-32 14.35-32 31.97V303.9c0 8.875-7.125 16-16 16s-16-7.125-16-16V227.4c0-17.37 4.75-34.5 13.75-49.37L299.5 48.41c9-15.12 4.125-34.76-11-43.88C273.1-4.225 255.8 .1289 246.1 13.63C245.1 13.88 245.5 13.88 245.4 14.13L128.1 190C117.5 205.9 112 224.3 112 243.3v80.24l-90.13 29.1C8.75 357.9 0 370.1 0 383.9v95.99c0 10.88 8.5 31.1 32 31.1c2.75 0 5.375-.25 8-1l179.3-46.62C269.1 450 304 403.8 304 351.9V223.9C304 206.3 289.6 191.9 272 191.9z"/><path class="fa-secondary" d="M618.1 353.6L528 323.6V243.4c0-19-5.5-37.37-16.12-53.25l-117.3-175.9c-.125-.25-.6251-.2487-.75-.4987c-9.625-13.5-27.88-17.85-42.38-9.229c-15.12 9.125-20 28.76-11 44.01l77.75 129.5C427.3 193 432 210 432 227.5v76.49c0 8.875-7.125 16-16 16s-16-7.125-16-16V223.1c0-17.62-14.38-31.97-32-31.97s-32 14.38-32 31.1v127.1c0 51.87 34.88 98.12 84.75 112.4L600 511C602.6 511.6 605.4 512 608 512c23.5 0 32-21.25 32-31.1v-95.99C640 370.3 631.3 358 618.1 353.6z"/></svg>
